svg/ionicons/binoculars-outline.svg

<svg xmlns="http://www.w3.org/2000/svg" width="512" height="512" viewBox="0 0 512 512"><g fill="currentColor" stroke="#000" stroke-linecap="round" stroke-linejoin="round" stroke-width="32"><circle cx="392" cy="344" r="88"/><circle cx="120" cy="344" r="88"/><path d="M208 344V128c0-26.5-16-48-44-48-35 0-46.5 21.5-57 48 0 0-48.5 127.833-71 189.5M208 184s16.5-8 48-8 48 8 48 8m-96 88s16.5-8 48-8 48 8 48 8m0 72V128c0-26.5 16-48 44-48 35 0 46.5 21.5 57 48 0 0 48.5 127.833 71 189.5"/></g></svg>

<svg width="512" height="512" viewBox="0 0 512 512" fill="none" xmlns="http://www.w3.org/2000/svg">
<circle cx="392" cy="344" r="88" stroke="black" stroke-width="32" stroke-linecap="round" stroke-linejoin="round"/>
<circle cx="120" cy="344" r="88" stroke="black" stroke-width="32" stroke-linecap="round" stroke-linejoin="round"/>
<path d="M208 344V128C208 101.5 192 80 164 80C129 80 117.5 101.5 107 128C107 128 58.5 255.833 36 317.5" stroke="black" stroke-width="32" stroke-linecap="round" stroke-linejoin="round"/>
<path d="M208 184C208 184 224.5 176 256 176C287.5 176 304 184 304 184" stroke="black" stroke-width="32" stroke-linecap="round" stroke-linejoin="round"/>
<path d="M208 272C208 272 224.5 264 256 264C287.5 264 304 272 304 272" stroke="black" stroke-width="32" stroke-linecap="round" stroke-linejoin="round"/>
<path d="M304 344V128C304 101.5 320 80 348 80C383 80 394.5 101.5 405 128C405 128 453.5 255.833 476 317.5" stroke="black" stroke-width="32" stroke-linecap="round" stroke-linejoin="round"/>
</svg>
